X:583
T:Dancing Feet
C:Joe Buchanan's Scottish Tome - Page 159.4
I:159 4
R:Reel
Z:Carl Allison
L:1/8
M:4/4
K:A
"A"a2 (ea) ceAc|"A"a2 (ea) ce"E7"Bc| "A"a2 (ea) ceAc | "D"fa"A"ef "A"ce"E7"Bc :|
"A"eA ((3AAA) (ce)Ac| "A"eA ((3AAA) (ce)Bc | "A"eA ((3AAA) (ce)Ac | "D"fa"A"ef "A"ce"E7"Bc :|
